X: 20515
Q: "Moderate"
M: 6/8
L: 1/8
K: G
d !segno!|\
d2B B2d | c2A A2c | B2d dcB | B3 {cB}A2d |\
d2B B2d | c2A A2c | B>cd cBA | G3 G2 H:|
|: B |\


